src/pos-icons/flip-to-front.svg

<svg height="24" viewBox="0 0 24 24" width="24" xmlns="http://www.w3.org/2000/svg"><path d="m7 21h2v-2h-2m4 2h2v-2h-2m8-4h-10v-10h10m0-2h-10c-1.11 0-2 .89-2 2v10a2 2 0 0 0 2 2h5 4 1a2 2 0 0 0 2-2v-10c0-1.11-.9-2-2-2m-4 18h2v-2h-2m-12-10h2v-2h-2m2 14v-2h-2a2 2 0 0 0 2 2m-2-4h2v-2h-2m0-2h2v-2h-2z"/></svg>

<?xml version="1.0" encoding="UTF-8"?><!DOCTYPE svg PUBLIC "-//W3C//DTD SVG 1.1//EN" "http://www.w3.org/Graphics/SVG/1.1/DTD/svg11.dtd"><svg xmlns="http://www.w3.org/2000/svg" xmlns:xlink="http://www.w3.org/1999/xlink" version="1.1" id="mdi-flip-to-front" width="24" height="24" viewBox="0 0 24 24"><path d="M7,21H9V19H7M11,21H13V19H11M19,15H9V5H19M19,3H9C7.89,3 7,3.89 7,5V15A2,2 0 0,0 9,17H14L18,17H19A2,2 0 0,0 21,15V5C21,3.89 20.1,3 19,3M15,21H17V19H15M3,9H5V7H3M5,21V19H3A2,2 0 0,0 5,21M3,17H5V15H3M3,13H5V11H3V13Z" /></svg>
